!! 00000] TT[00
!! NN
!!!OTL: Gaoshan dingshang xiu tiao he
!!!ARE: Asia, China,ÿHunan, Shaoshan
!! Ethnic Group: Han
!! I, 506
!!!SCT: C0120
!!!YEM: Copyright 1995, estate of Helmut Schaffrath.
**kern
*ICvox
*Ivox
*M4/4
*k[]
*C:
{8.dd
16gg
8ee
8dd
4cc
8a
8g
=1
8.dd
16gg
8ee
8dd
4cc
8a
8g}
=2
{4.dd
8ee
8gg
8ee
8aa
8gg
=3
8.ee
16dd
8ee
8gg
4dd
4cc}
=4
{4.dd
8ee
8gg
8ee
8aa
8gg
=5
8.ee
16dd
8ee
8gg
4dd
4cc}
=6
{4cc
8a
8cc
4.dd
8ee
=7
4cc
8a
8ee
8dd
8a
4g
=8
8.ee
16gg
8ee
8a
4cc
4cc}
=9
{8.a
16cc
8a
8g
4e
4g
=10
4.ee
8a
4ee
8dd
8a
=11
4.cc
8dd
8a
8g
4e
=12
1g}
==
!!!AGN: Wuge, Dengdiao, Cailianchuan. Xin minge
!! neues Volkslied. voellig neuer Text.
!!    Verzierungen: vereinzelt Praller, ?) und Glissandi.
!!!ONB: ESAC (Essen Associative Code) Database: CHINA
!!!AMT: simple quadruple
!!!AIN: vox
!!!EED: Helmut Schaffrath
!!!EEV: 1.0
*-
